X: 24894
T: Magpie's Nest, The
R: reel
M: 4/4
K: Dmajor
Ad{e}dA TBAFA|dAFA TGFED|FAAB AFEF|1 ABde Tfee2:|2 ABde fdd2||
a2{b}afg2{a}ge|f2fd ecA2|a2{b}ag fedB|ABde Tfee2|
a2fag2eg|f2df ecAF|G2(BGF2)(AF)|ABde fdd2||
AddA BAFA|dAFA GFED|FAAB AFEF|ABde fee2|
AddA BAFA|dAFA GFED|FAAB AFEF|ABde fdd2:|
faaf efde|fdec dcBA|faaa bafa|ABde fdd2|
faaf efde|fdec dcBA|FGAF GABG|ABde fdd2:|
AddA BAFA|~B2AF GFED|(3EFG Ad AFEF|ABde feeB|
A2dA BAFA|~B2AF GFED|(3EFG Ad AFEF|1 ABde fddB:|2 ABde fddf||
|:~a3f gfea|fedf eBBA|fa~a2 fedB|ABde fee2|
faaf gfeg|fedf edBA|EFAF GABG|1 ABde fddf:|2 ABde fded||

